X: 1
T: Captain Keeler
C: trad.
S: Winston Fitzgerald Colln
Z: T. Traub 7-5-2000
M: C
R: reel
L: 1/8
K: Bb
   A | "Bb"B2 d/c/B fBbB | "Bb"B2 d/c/B "F"AFcA |\
[1 "Bb"B2 d/c/B fBbB | "F"AFcA "Gm"BGG :|\
[2 "Bb"Bcd=e fgfd | "F"cAFA "Gm"BG G |]
|: B | "Gm"DGBG dGBG | "Gm"DGBG "F"AFcA |\
[1 "Gm"DGBG dGBd | "F"cAFA "Gm"BGG :|\
[2 "Bb"Bcd=e fgfd | "F"cAFA "Gm"BG G |]
